src/rounded/icons/fi-rr-billiard.svg

<svg id="Layer_1" height="512" viewBox="0 0 24 24" width="512" xmlns="http://www.w3.org/2000/svg" data-name="Layer 1"><path d="m12 24a12 12 0 1 1 12-12 12.013 12.013 0 0 1 -12 12zm0-22a10 10 0 1 0 10 10 10.011 10.011 0 0 0 -10-10zm0 18a8 8 0 1 1 8-8 8.009 8.009 0 0 1 -8 8zm0-14a6 6 0 1 0 6 6 6.006 6.006 0 0 0 -6-6zm-.143 9.515 3-5a1 1 0 0 0 -.857-1.515h-4a1 1 0 0 0 0 2h2.234l-2.091 3.485a1 1 0 1 0 1.714 1.03z"/></svg>

<svg id="Layer_1" data-name="Layer 1" xmlns="http://www.w3.org/2000/svg" viewBox="0 0 24 24"><path d="M12,24A12,12,0,1,1,24,12,12.013,12.013,0,0,1,12,24ZM12,2A10,10,0,1,0,22,12,10.011,10.011,0,0,0,12,2Zm0,18a8,8,0,1,1,8-8A8.009,8.009,0,0,1,12,20ZM12,6a6,6,0,1,0,6,6A6.006,6.006,0,0,0,12,6Zm-.143,9.515,3-5A1,1,0,0,0,14,9H10a1,1,0,0,0,0,2h2.234l-2.091,3.485a1,1,0,1,0,1.714,1.03Z"/></svg>
